SuperDirt.start;
s.quit;
s.options.memSize = 32*8192;

s.options.inDevices;

~dirt.loadSoundFiles("C:\\Users\\asus\\AppData\\Local\\SuperCollider\\downloaded-quarks\\Dirt-Samples\\*");
~dirt.loadSoundFiles("C:\\Users\\asus\\AppData\\Local\\SuperCollider\\samples\\*");
