setcps (100/80/2)

d1 $ whenmod 4 3 (# pan cosine) $ sometimes (# speed 1) $ s "[jazz:2/2 [jazz:1,808oh] ~ [sn,808bd]]!4" # speed 2 -- # lpf "12000 400"
d2 $ n "0 1 1 2" # s "superfm" # octave 3 # lpf "[12000 200]/2" # room 0.8 # size 0.4 # gain 1 # pan sine # attack 0.5
d3 $ degrade $ chop 2 $ s "house:2*8" # attack 0.4  # release 0.8 # gain 2
d4 $ s "808ht*8" # pan tri # gain 1
