setcps (100/80/2)

d1 $ s "[808bd/2 [hh,808oh] ~ [sn,808bd]]!4" # speed 1 -- # lpf "12000 400"
d2 $ n "0 1 2 3 5 2 1 3 7" # s "superfm*4" # octave 4 # lpf "[12000 200]/2" # room 0.8 # size 0.4 # gain 0.9 # pan sine # attack 0.5
d3 $ degrade $ chop 2 $ s "house:2*8" # attack 0.4  # release 0.8 # gain 1.6
d4 $ s "808ht*8" # pan tri # gain 1
