d1 $ stripe 2 $ chop 2 $ s "arp*4 arp:1" # speed (rand -2) # sustain 1.2 # gain 1
d2 $ degrade $ striate 2 $ chop 2 $ sound "[808superbass*4 808superbass:3*2]" # pan sine # gain 1 # speed 1
d4 $ degrade $ chop 2 $ s "glitch:2*4 glitch:5*2" # gain 1 # room 0.7 # size 1

-- d1 $ s "glitch:2*1" # gain 1 # room 0.7 # size 1
-- d2 $ sound "[808superbass*1]" # pan sine # gain 1 # speed 1
-- d3 $ s "arp*4 arp:1" # speed (rand -2) # sustain 1.2 # gain 1
