d1 $ chop 2 $ s "glitch:2*4 glitch:5*2" # gain 1 # room 0.8 # size 0.95
d2 $ striate 2 $ chop 4 $ sound "[808superbass*4 808superbass:4*2]" # pan sine # gain 1 # speed 1
d3 $ degrade $ swing 4 $ stripe 4 $ striate 2 $ chop 2 $ s "arp*4 arp:1" # speed (rand -2) # sustain 1.2 # gain 1 # attack 0.5
d4 $ chop 2 $ swing 2 $ n "0 1 2" # s "darkpad" # gain 0.9 # speed 1
panic
