setcps (100/60/4)

d1 $ stripe 2 $ chop 2 $ s "arp*4 arp:1" # speed (rand -2) # sustain 1.2 # gain 1
d2 $ superimpose (striate 2) $ sometimes (# accelerate (irand 5)) $ sound "[808superbass*1]" # accelerate 0 # gain 1
d3 $ chop 1 $ s "glitch:3 glitch:0" # room 0.7 # size 0.9 # gain 0.9
d4 $ striate 2 $ chop 4 $ swing 1 $ n "0 1 2" # s "darkpad" # gain 0.8 # speed 1
panic
