setcps (165/60/4)

d1 $ striate 2 $ sometimes (# accelerate 2) $ s "breaks165" # gain 1.3 # grain 0.5 0.65
d2 $ s "808ht*3 ~ ~ hh*3" # pan sine
d3 $ (struct "[~ t*4 ~ t*2]" $ scale "chinese" (irand 8)) # s "supergong" # sustain 1.2 # attack 0.1 # gain 1
d4 $ iter 4 $ chop 2 $ n "0 1 2 3" # s "procshort" # gain 0.8
