d1 $ silence

do
  d1
    $ degrade
    $ striate 8
    $ fast 8
    $ s "darkpad"
    # n (choose [0, 1, 2])
    # gain 0.8
    # speed 2
    # grain 0.3 0.8

d2 $ chop 2 $ s "glitch:2*4" # gain 1 # room 0.4 # size 0.9

d3 $ chop 2 $ sound "[808superbass*4 808superbass:2*2]" # gain 1.1 # speed 1

d4
  $ sometimes (# speed tri)
  $ striate 8
  $ stripe 2
  $ chop 4
  $ s "arp*4 arp:1"
  # speed 1
  # sustain 1.2
  # gain 1

panic
