d1 $ swingBy 6 (1/12) $ every 2 (# speed 4) $ fast 2 $ striate 2 $ n "0 1 2 3" # s "sequential" # cut 1 # speed 2
d2 $ swing 3 $ n "0 1 2 3 4 5 6 7" # s "outdoor" # room 0.4 # size 0.9 # speed 2 # gain 0.8 # pan sine
d3 $ swing 2 $ striate 2 $ every (choose [1,2,3,4]) (# speed 2) $ every 2 (# speed 0.5) $ iter 8 $ n "0 1 2 3 4 5 6 7" # s "procshort"
